Sources/FrostedUI/Resources/Icons.xcassets/calendarX12.imageset/calendar-x-12.svg

<svg width="12" height="12" viewBox="0 0 12 12" fill="none" xmlns="http://www.w3.org/2000/svg" data-fui-icon="true">
  <path
    d="M8.125 0.625C8.53921 0.625 8.875 0.960786 8.875 1.375V1.625H9.125C10.0915 1.625 10.875 2.40851 10.875 3.375V9.125C10.875 10.0915 10.0915 10.875 9.125 10.875H2.875C1.90851 10.875 1.125 10.0915 1.125 9.125V3.375C1.125 2.4085 1.9085 1.625 2.875 1.625H3.125V1.375C3.125 0.960786 3.46079 0.625 3.875 0.625C4.28921 0.625 4.625 0.960786 4.625 1.375V1.625H7.375V1.375C7.375 0.960786 7.71079 0.625 8.125 0.625ZM2.875 3.125C2.73693 3.125 2.625 3.23693 2.625 3.375V9.125C2.625 9.26308 2.73692 9.375 2.875 9.375H9.125C9.26309 9.375 9.375 9.26309 9.375 9.125V3.375C9.375 3.23692 9.26308 3.125 9.125 3.125H2.875ZM6.7207 4.46973C7.0136 4.1769 7.48838 4.17685 7.78125 4.46973C8.07406 4.7626 8.07406 5.2374 7.78125 5.53027L7.06055 6.25098L7.78027 6.9707C8.07302 7.2636 8.07311 7.7384 7.78027 8.03125C7.48743 8.3241 7.01263 8.324 6.71973 8.03125L6 7.31152L5.28027 8.03125C4.9874 8.32406 4.5126 8.32406 4.21973 8.03125C3.92685 7.73838 3.9269 7.2636 4.21973 6.9707L4.93945 6.25098L4.21875 5.53027C3.92586 5.23738 3.92586 4.76262 4.21875 4.46973C4.51164 4.17684 4.98641 4.17683 5.2793 4.46973L6 5.19043L6.7207 4.46973Z"
    fill="currentColor"
  />
</svg>

<svg xmlns="http://www.w3.org/2000/svg" width="12" height="12" fill="none" data-fui-icon="true" viewBox="0 0 12 12"><path fill="currentColor" d="M8.125.625a.75.75 0 0 1 .75.75v.25h.25c.966 0 1.75.784 1.75 1.75v5.75a1.75 1.75 0 0 1-1.75 1.75h-6.25a1.75 1.75 0 0 1-1.75-1.75v-5.75c0-.966.784-1.75 1.75-1.75h.25v-.25a.75.75 0 0 1 1.5 0v.25h2.75v-.25a.75.75 0 0 1 .75-.75m-5.25 2.5a.25.25 0 0 0-.25.25v5.75c0 .138.112.25.25.25h6.25a.25.25 0 0 0 .25-.25v-5.75a.25.25 0 0 0-.25-.25zM6.721 4.47a.75.75 0 0 1 1.06 1.06l-.72.721.72.72A.75.75 0 0 1 6.72 8.03L6 7.311l-.72.72a.75.75 0 0 1-1.06-1.06l.72-.72-.721-.72a.75.75 0 1 1 1.06-1.061L6 5.19z"/></svg>
